packages/ffe-icons/icons/filled/md/cleaning_bucket.svg

<svg xmlns="http://www.w3.org/2000/svg" height="24" viewBox="0 -960 960 960" width="24"><path d="M361.301-60.002q-27.454 0-47.834-17.651-20.381-17.652-24.004-44.81L228.694-579.23q-2-16.307 8.654-28.538 10.653-12.231 27.239-12.231h431.211q16.585 0 27.239 12.231t8.654 28.538l-60.769 456.767q-3.63 27.157-24.049 44.81-20.418 17.652-47.643 17.652H361.301ZM479.955-330q45.814 0 77.929-32.083T589.999-440v-40q0-12.75-8.628-21.374-8.629-8.625-21.384-8.625-12.756 0-21.371 8.625-8.615 8.624-8.615 21.374v40q0 20.846-14.577 35.424-14.578 14.577-35.424 14.577t-35.424-14.577Q429.999-419.154 429.999-440v-40q0-12.75-8.628-21.374-8.629-8.625-21.384-8.625-12.756 0-21.371 8.625-8.615 8.624-8.615 21.374v40q0 45.833 32.07 77.916t77.884 32.083Zm120.09-350.384q-20.814 0-35.429-14.57-14.615-14.569-14.615-35.384 0-20.814 14.57-35.429 14.57-14.615 35.384-14.615t35.429 14.57q14.615 14.57 14.615 35.384T635.429-695q-14.57 14.615-35.384 14.615Zm-200.045-40q-37.384 0-63.692-26.307-26.307-26.308-26.307-63.884 0-37.577 26.307-63.692 26.308-26.115 63.884-26.115 37.577 0 63.692 26.1 26.115 26.099 26.115 63.899 0 37.384-26.1 63.692Q437.8-720.385 400-720.385Z"/></svg>

<svg xmlns="http://www.w3.org/2000/svg" height="24" viewBox="0 -960 960 960" width="24"><path d="M361.3-60q-27.45 0-47.83-17.65-20.38-17.66-24.01-44.81l-60.77-456.77q-2-16.31 8.66-28.54Q248-620 264.59-620H695.8q16.58 0 27.24 12.23 10.65 12.23 8.65 28.54l-60.77 456.77q-3.63 27.15-24.05 44.81Q626.45-60 599.23-60H361.3Zm118.65-270q45.82 0 77.93-32.08Q590-394.17 590-440v-40q0-12.75-8.63-21.37-8.63-8.63-21.38-8.63-12.76 0-21.37 8.63Q530-492.75 530-480v40q0 20.85-14.58 35.42Q500.85-390 480-390t-35.42-14.58Q430-419.15 430-440v-40q0-12.75-8.63-21.37-8.63-8.63-21.38-8.63-12.76 0-21.37 8.63Q370-492.75 370-480v40q0 45.83 32.07 77.92Q434.14-330 479.95-330Zm120.1-350.38q-20.82 0-35.43-14.57Q550-709.52 550-730.34q0-20.81 14.57-35.43 14.57-14.61 35.38-14.61 20.82 0 35.43 14.57Q650-751.24 650-730.43q0 20.82-14.57 35.43-14.57 14.62-35.38 14.62Zm-200.05-40q-37.38 0-63.69-26.31Q310-773 310-810.58q0-37.57 26.31-63.69 26.31-26.11 63.88-26.11 37.58 0 63.69 26.1 26.12 26.1 26.12 63.9 0 37.38-26.1 63.69-26.1 26.31-63.9 26.31Z"/></svg>
